usr/share/icons/biglinux-icons-material/scalable/mimetypes/text-x-r.svg

<svg width="24" height="24" viewBox="0 0 24 24" fill="none" xmlns="http://www.w3.org/2000/svg">
<rect x="1" y="1" width="22" height="22" rx="6.6" fill="url(#paint0_radial_21_2529)"/>
<path fill-rule="evenodd" clip-rule="evenodd" d="M15.3985 12.9277C15.2024 13.0016 15.1969 13.3503 15.3935 13.4226C15.5645 13.4856 15.7365 13.5547 15.8775 13.6231C16.0387 13.7014 16.3175 13.8577 16.5187 14.0628C16.6939 14.2414 16.7893 14.4221 16.8083 14.46C16.8107 14.4649 16.8132 14.4696 16.8159 14.4743L19.8272 19.6982C19.904 19.8315 19.8079 19.9981 19.654 19.9981L14.3078 20C14.2357 20 14.1692 19.9613 14.1337 19.8986L11.8128 15.8037C11.8118 15.802 11.8109 15.8004 11.8098 15.7987C11.7802 15.75 11.314 14.9894 11.0236 14.7637C10.7733 14.5692 10.6665 14.4999 10.4191 14.4999H9.409C9.29856 14.4999 9.20902 14.5894 9.209 14.6999L9.20821 19.797C9.2082 19.9074 9.11866 19.9969 9.00821 19.9969H4.2C4.08954 19.9969 4 19.9074 4 19.7969V4.2C4 4.08954 4.08954 4 4.2 4H12.0722C14.9388 4 18.7194 4.82324 18.7194 8.5874C18.7194 11.298 16.5904 12.479 15.3985 12.9277ZM9.40806 6.9999C9.29753 6.9998 9.20788 7.08937 9.20788 7.1999V10.799C9.20788 10.9095 9.29742 10.999 9.40788 10.999H11.6797C11.6797 10.999 11.6797 10.999 11.6797 10.999C11.6797 10.999 13.596 10.999 13.7235 9.04221C13.8564 7.00191 11.6823 7.00194 11.6785 7.00194C11.6784 7.00194 11.6785 7.00194 11.6784 7.00194L9.40806 6.9999Z" fill="#3F51B5"/>
<defs>
<radialGradient id="paint0_radial_21_2529" cx="0" cy="0" r="1" gradientUnits="userSpaceOnUse" gradientTransform="translate(17.5 1) rotate(116.565) scale(24.5967)">
<stop stop-color="#F4F4F4"/>
<stop offset="1" stop-color="#BBBBBB"/>
</radialGradient>
</defs>
</svg>

<svg xmlns="http://www.w3.org/2000/svg" width="24" height="24" fill="none"><rect width="22" height="22" x="1" y="1" fill="url(#a)" rx="6.6"/><path fill="#3F51B5" fill-rule="evenodd" d="M15.399 12.928c-.197.074-.202.422-.005.495.17.063.342.132.483.2.162.078.44.235.642.44a1.686 1.686 0 0 1 .297.411l3.011 5.224a.2.2 0 0 1-.173.3L14.308 20a.2.2 0 0 1-.174-.101l-2.321-4.095-.003-.005c-.03-.049-.496-.81-.786-1.035-.25-.195-.357-.264-.605-.264H9.41a.2.2 0 0 0-.2.2v5.097a.2.2 0 0 1-.2.2H4.2a.2.2 0 0 1-.2-.2V4.2c0-.11.09-.2.2-.2h7.872c2.867 0 6.647.823 6.647 4.587 0 2.711-2.129 3.892-3.32 4.34ZM9.409 7a.2.2 0 0 0-.201.2v3.599c0 .11.09.2.2.2h2.272s1.916 0 2.043-1.957c.133-2.04-2.04-2.04-2.045-2.04L9.408 7Z" clip-rule="evenodd"/><defs><radialGradient id="a" cx="0" cy="0" r="1" gradientTransform="rotate(116.565 8.441 5.908) scale(24.5967)" gradientUnits="userSpaceOnUse"><stop stop-color="#F4F4F4"/><stop offset="1" stop-color="#BBB"/></radialGradient></defs></svg>
